svg/LeftHanded/ne-resize.svg

<?xml version="1.0" encoding="UTF-8" standalone="no"?>
<!-- Created with Inkscape (http://www.inkscape.org/) -->
<svg
   xmlns:svg="http://www.w3.org/2000/svg"
   xmlns="http://www.w3.org/2000/svg"
   xmlns:xlink="http://www.w3.org/1999/xlink"
   version="1.0"
   width="500"
   height="500"
   viewBox="0 0 1000 1000"
   id="page"
   xml:space="preserve"><defs
     id="defs38"><linearGradient
       id="linearGradient2218"><stop
         id="stop2220"
         style="stop-color:#999999;stop-opacity:1"
         offset="0" /><stop
         id="stop2222"
         style="stop-color:#555555;stop-opacity:1"
         offset="1" /></linearGradient><linearGradient
       x1="303.29138"
       y1="115.33563"
       x2="303.29138"
       y2="508.32028"
       id="linearGradient4206"
       xlink:href="#linearGradient2218"
       gradientUnits="userSpaceOnUse"
       gradientTransform="translate(-6.324404e-6,1.246115e-5)" /></defs><path
     d="M 444.64027,456.19079 C 464.83827,455.80579 582.58227,302.49179 599.83827,302.80479 C 618.58227,302.49179 599.54827,483.52279 608.83827,491.80579 C 618.58227,500.49179 672.58227,500.49179 680.83827,491.80579 C 690.58227,482.49179 686.78927,142.05579 679.64127,134.19079 C 669.63927,123.18879 330.58227,122.49179 320.83827,131.80379 C 309.11727,143.00879 312.58227,194.49079 320.83827,203.80379 C 330.58227,212.49079 510.58227,194.49079 509.83827,212.80379 C 510.58127,230.49079 356.83827,347.80379 354.63827,366.18779 C 357.58227,401.49179 411.58227,455.49079 444.64027,456.19079 z"
     id="path4191"
     style="opacity:1;fill:url(#linearGradient4206);fill-opacity:1;stroke:#000000;stroke-width:20;stroke-linecap:round;stroke-linejoin:round;stroke-miterlimit:1" /></svg>

<?xml version="1.0" encoding="UTF-8" standalone="no"?>
<!-- Created with Inkscape (http://www.inkscape.org/) -->

<svg
   xmlns:dc="http://purl.org/dc/elements/1.1/"
   xmlns:cc="http://creativecommons.org/ns#"
   xmlns:rdf="http://www.w3.org/1999/02/22-rdf-syntax-ns#"
   xmlns:svg="http://www.w3.org/2000/svg"
   xmlns="http://www.w3.org/2000/svg"
   xmlns:xlink="http://www.w3.org/1999/xlink"
   version="1.0"
   width="500"
   height="500"
   viewBox="0 0 1000 1000"
   id="page"
   xml:space="preserve"><metadata
     id="metadata11"><rdf:RDF><cc:Work
         rdf:about=""><dc:format>image/svg+xml</dc:format><dc:type
           rdf:resource="http://purl.org/dc/dcmitype/StillImage" /><dc:title></dc:title></cc:Work></rdf:RDF></metadata><defs
     id="defs38"><linearGradient
       id="linearGradient2218"><stop
         id="stop2220"
         style="stop-color:#999999;stop-opacity:1"
         offset="0" /><stop
         id="stop2222"
         style="stop-color:#555555;stop-opacity:1"
         offset="1" /></linearGradient><linearGradient
       x1="303.29138"
       y1="115.33563"
       x2="303.29138"
       y2="508.32028"
       id="linearGradient4206"
       xlink:href="#linearGradient2218"
       gradientUnits="userSpaceOnUse"
       gradientTransform="translate(-6.324404e-6,1.246115e-5)" /><linearGradient
       x1="303.29138"
       y1="115.33563"
       x2="303.29138"
       y2="508.32028"
       id="linearGradient4206-6"
       xlink:href="#linearGradient2218-2"
       gradientUnits="userSpaceOnUse"
       gradientTransform="translate(-6.324404e-6,1.246115e-5)" /><linearGradient
       id="linearGradient2218-2"><stop
         id="stop2220-9"
         style="stop-color:#999999;stop-opacity:1"
         offset="0" /><stop
         id="stop2222-0"
         style="stop-color:#555555;stop-opacity:1"
         offset="1" /></linearGradient><filter
       x="-0.239861"
       y="-0.24013916"
       width="1.479722"
       height="1.4802783"
       color-interpolation-filters="sRGB"
       id="filter3794"><feGaussianBlur
         id="feGaussianBlur3796"
         stdDeviation="37.320097" /></filter></defs><path
     d="m 326.23969,923.54055 c 20.198,-0.385 137.942,-153.699 155.198,-153.386 18.744,-0.313 -0.29,180.71804 9,189.00104 9.744,8.686 63.744,8.686 72,0 9.744,-9.314 5.951,-349.75004 -1.197,-357.61504 -10.002,-11.002 -349.059,-11.699 -358.803,-2.387 -11.721,11.205 -8.256,62.687 0,72 9.744,8.687 189.744,-9.313 189,9 0.743,17.687 -153,135 -155.2,153.384 2.944,35.304 56.944,89.303 90.002,90.003 z"
     transform="matrix(1.2,0,0,1.2,42.080697,-503.18533)"
     id="path4191-0"
     style="opacity:0.15;fill:#111111;fill-opacity:1;stroke:none;filter:url(#filter3794)" /><path
     d="m 444.64027,456.19079 c 20.198,-0.385 137.942,-153.699 155.198,-153.386 18.744,-0.313 -0.29,180.718 9,189.001 9.744,8.686 63.744,8.686 72,0 9.744,-9.314 5.951,-349.75 -1.197,-357.615 -10.002,-11.002 -349.059,-11.699 -358.803,-2.387 -11.721,11.205 -8.256,62.687 0,72 9.744,8.687 189.744,-9.313 189,9 0.743,17.687 -153,135 -155.2,153.384 2.944,35.304 56.944,89.303 90.002,90.003 z"
     id="path4191"
     style="opacity:0.75;fill:url(#linearGradient4206);fill-opacity:1;stroke:#000000;stroke-width:20;stroke-linecap:round;stroke-linejoin:round;stroke-miterlimit:1" /></svg>
